src/assets/icons/fullscreen.svg

<svg width="24" height="24" viewBox="0 0 24 24" fill="none" xmlns="http://www.w3.org/2000/svg">
<path d="M14.016 5.01601H18.985V9.98501H17.016V6.98501H14.016V5.01601V5.01601ZM17.016 17.016V14.016H18.985V18.985H14.016V17.016H17.016ZM5.016 9.98401V5.01501H9.985V6.98401H6.985V9.98401H5.016V9.98401ZM6.984 14.016V17.016H9.984V18.985H5.015V14.016H6.984V14.016Z" fill="#E8E6E3"/>
</svg>

<svg viewBox="0 0 24 24" fill="#e8e6e3" xmlns="http://www.w3.org/2000/svg">
	<path d="M14.016 5.016h4.969v4.969h-1.969v-3h-3v-1.969zM17.016 17.016v-3h1.969v4.969h-4.969v-1.969h3zM5.016 9.984v-4.969h4.969v1.969h-3v3h-1.969zM6.984 14.016v3h3v1.969h-4.969v-4.969h1.969z">
	</path>
</svg>
